Origami/32x32/apps/qbittorrent.svg

<svg width="32" height="32" version="1.0" xmlns="http://www.w3.org/2000/svg">
 <defs>
  <clipPath id="clipPath4186">
   <circle cx="286" cy="26" r="10" style="fill:url(#linearGradient4190)"/>
  </clipPath>
 </defs>
 <circle cx="16" cy="17" r="14" style="opacity:.2"/>
 <circle cx="16" cy="16" r="14" style="fill:#2f67ba"/>
 <circle transform="matrix(1.4,0,0,1.4,-384.4,-20.4)" cx="286" cy="26" r="10" clip-path="url(#clipPath4186)" style="opacity:0"/>
 <circle transform="matrix(1.4,0,0,1.4,-384.4,-20.4)" cx="286" cy="26" r="10" clip-path="url(#clipPath4186)" style="opacity:0"/>
 <path d="m9.5 12a5.5 5.5 0 0 0 -5.5 5.5 5.5 5.5 0 0 0 5.5 5.5 5.5 5.5 0 0 0 2.5 -0.607422v5.607422h3v-10.5-5.5h-3v0.601562a5.5 5.5 0 0 0 -2.5 -0.601562zm0 3a2.5 2.5 0 0 1 2.5 2.5 2.5 2.5 0 0 1 -2.5 2.5 2.5 2.5 0 0 1 -2.5 -2.5 2.5 2.5 0 0 1 2.5 -2.5z" style="opacity:.2"/>
 <path d="m9.5 11a5.5 5.5 0 0 0 -5.5 5.5 5.5 5.5 0 0 0 5.5 5.5 5.5 5.5 0 0 0 2.5 -0.607422v5.607422h3v-10.5-5.5h-3v0.601562a5.5 5.5 0 0 0 -2.5 -0.601562zm0 3a2.5 2.5 0 0 1 2.5 2.5 2.5 2.5 0 0 1 -2.5 2.5 2.5 2.5 0 0 1 -2.5 -2.5 2.5 2.5 0 0 1 2.5 -2.5z" style="fill:#7fc1de"/>
 <path d="m22.5 23a5.5 5.5 0 0 0 5.5 -5.5 5.5 5.5 0 0 0 -5.5 -5.5 5.5 5.5 0 0 0 -2.5 0.607422v-5.607422h-3v10.5 5.5h3v-0.601562a5.5 5.5 0 0 0 2.5 0.601562zm0-3a2.5 2.5 0 0 1 -2.5 -2.5 2.5 2.5 0 0 1 2.5 -2.5 2.5 2.5 0 0 1 2.5 2.5 2.5 2.5 0 0 1 -2.5 2.5z" style="opacity:.2"/>
 <path d="m22.5 22a5.5 5.5 0 0 0 5.5 -5.5 5.5 5.5 0 0 0 -5.5 -5.5 5.5 5.5 0 0 0 -2.5 0.607422v-5.607422h-3v10.5 5.5h3v-0.601562a5.5 5.5 0 0 0 2.5 0.601562zm0-3a2.5 2.5 0 0 1 -2.5 -2.5 2.5 2.5 0 0 1 2.5 -2.5 2.5 2.5 0 0 1 2.5 2.5 2.5 2.5 0 0 1 -2.5 2.5z" style="fill:#ffffff"/>
 <path d="M 16 2 A 14 14 0 0 0 2 16 A 14 14 0 0 0 2.0214844 16.585938 A 14 14 0 0 1 16 3 A 14 14 0 0 1 29.978516 16.414062 A 14 14 0 0 0 30 16 A 14 14 0 0 0 16 2 z " style="fill:#ffffff;opacity:.2"/>
</svg>

<?xml version="1.0" encoding="UTF-8" standalone="no"?>
<svg
   xmlns:dc="http://purl.org/dc/elements/1.1/"
   xmlns:cc="http://creativecommons.org/ns#"
   xmlns:rdf="http://www.w3.org/1999/02/22-rdf-syntax-ns#"
   xmlns:svg="http://www.w3.org/2000/svg"
   xmlns="http://www.w3.org/2000/svg"
   version="1.0"
   width="32"
   height="32"
   id="svg2817">
  <metadata
     id="metadata57">
    <rdf:RDF>
      <cc:Work
         rdf:about="">
        <dc:format>image/svg+xml</dc:format>
        <dc:type
           rdf:resource="http://purl.org/dc/dcmitype/StillImage" />
        <dc:title></dc:title>
      </cc:Work>
    </rdf:RDF>
  </metadata>
  <defs
     id="defs2819">
    <clipPath
       clipPathUnits="userSpaceOnUse"
       id="clipPath4186">
      <circle
         r="10"
         cx="286"
         cy="26"
         style="color:#000000;fill:url(#linearGradient4190)"
         id="path4188" />
    </clipPath>
  </defs>
  <circle
     id="circle4170"
     style="color:#000000;opacity:0.2;fill:#000000;fill-opacity:1"
     cx="16"
     cy="17"
     r="14" />
  <circle
     r="14"
     cy="16"
     cx="16"
     style="color:#000000;fill:#2f67ba;fill-opacity:1"
     id="path4230" />
  <circle
     r="10"
     cx="286"
     cy="26"
     transform="matrix(1.4,0,0,1.4,-384.4,-20.4)"
     clip-path="url(#clipPath4186)"
     style="color:#000000;opacity:0;stroke-width:0.45455"
     id="path4240" />
  <circle
     r="10"
     cx="286"
     cy="26"
     transform="matrix(1.4,0,0,1.4,-384.4,-20.4)"
     clip-path="url(#clipPath4186)"
     style="color:#000000;opacity:0;stroke-width:0.90908998"
     id="path4242" />
  <path
     style="opacity:0.2;fill:#000000;fill-opacity:1;stroke:none;stroke-width:4;stroke-linecap:round;stroke-linejoin:round;stroke-miterlimit:4;stroke-dasharray:none;stroke-opacity:1"
     d="M 9.5,12 A 5.5,5.5 0 0 0 4,17.5 5.5,5.5 0 0 0 9.5,23 5.5,5.5 0 0 0 12,22.392578 L 12,28 l 3,0 0,-10.5 0,-5.5 -3,0 0,0.601562 A 5.5,5.5 0 0 0 9.5,12 Z m 0,3 A 2.5,2.5 0 0 1 12,17.5 2.5,2.5 0 0 1 9.5,20 2.5,2.5 0 0 1 7,17.5 2.5,2.5 0 0 1 9.5,15 Z"
     id="path4166" />
  <path
     id="path4156"
     d="M 9.5 11 A 5.5 5.5 0 0 0 4 16.5 A 5.5 5.5 0 0 0 9.5 22 A 5.5 5.5 0 0 0 12 21.392578 L 12 27 L 15 27 L 15 16.5 L 15 11 L 12 11 L 12 11.601562 A 5.5 5.5 0 0 0 9.5 11 z M 9.5 14 A 2.5 2.5 0 0 1 12 16.5 A 2.5 2.5 0 0 1 9.5 19 A 2.5 2.5 0 0 1 7 16.5 A 2.5 2.5 0 0 1 9.5 14 z "
     style="opacity:1;fill:#7fc1de;fill-opacity:1;stroke:none;stroke-width:4;stroke-linecap:round;stroke-linejoin:round;stroke-miterlimit:4;stroke-dasharray:none;stroke-opacity:1" />
  <path
     id="path4168"
     d="M 22.5,23 A 5.5,5.5 0 0 0 28,17.5 5.5,5.5 0 0 0 22.5,12 5.5,5.5 0 0 0 20,12.607422 L 20,7 l -3,0 0,10.5 0,5.5 3,0 0,-0.601562 A 5.5,5.5 0 0 0 22.5,23 Z m 0,-3 A 2.5,2.5 0 0 1 20,17.5 2.5,2.5 0 0 1 22.5,15 2.5,2.5 0 0 1 25,17.5 2.5,2.5 0 0 1 22.5,20 Z"
     style="opacity:0.2;fill:#000000;fill-opacity:1;stroke:none;stroke-width:4;stroke-linecap:round;stroke-linejoin:round;stroke-miterlimit:4;stroke-dasharray:none;stroke-opacity:1" />
  <path
     style="opacity:1;fill:#ffffff;fill-opacity:1;stroke:none;stroke-width:4;stroke-linecap:round;stroke-linejoin:round;stroke-miterlimit:4;stroke-dasharray:none;stroke-opacity:1"
     d="M 22.5,22 A 5.5,5.5 0 0 0 28,16.5 5.5,5.5 0 0 0 22.5,11 5.5,5.5 0 0 0 20,11.607422 L 20,6 l -3,0 0,10.5 0,5.5 3,0 0,-0.601562 A 5.5,5.5 0 0 0 22.5,22 Z m 0,-3 A 2.5,2.5 0 0 1 20,16.5 2.5,2.5 0 0 1 22.5,14 2.5,2.5 0 0 1 25,16.5 2.5,2.5 0 0 1 22.5,19 Z"
     id="path4164" />
  <path
     id="circle4172"
     d="M 16 2 A 14 14 0 0 0 2 16 A 14 14 0 0 0 2.0214844 16.585938 A 14 14 0 0 1 16 3 A 14 14 0 0 1 29.978516 16.414062 A 14 14 0 0 0 30 16 A 14 14 0 0 0 16 2 z "
     style="color:#000000;fill:#ffffff;fill-opacity:1;opacity:0.2" />
</svg>
